X:267
T:Reel 267
L:1/8
M: 4/4
K: D Major
|A|dcefdcAG|FDFAdcAB|=cdefgecA|dcAGA3c|dcAB=c2AG|FDFAd^cAG|FDFAGdef|geced3:||:g|fafabgeg|fdAGFGAB|=cAGFEAce|fedfecde|fafabgeg|fdcAG2FG|AdcAGBed|cAecd3:|.abc